!!!COM: Mozart
!!!OTL: 8 Variationen uber das Lied "Ein Weib ist das herrlichste Ding"
!!!Variation: Variation 6 d
**function	**harm	**kern	**kern
*	*	*clefF4	*clefG2
*	*	*k[b-e-a-d-]	*k[b-e-a-d-]
*M3/4	*M3/4	*M3/4	*M3/4
*f:	*f:	*f:	*f:
4T	4V	8GL	8c'L
.	.	8CJ)	8c'J
=316	=316	=316	=316
2.T	2.i	(4F	(8c
.	.	.	4f
.	.	4A-	.
.	.	.	4a-
.	.	4c)	.
.	.	.	8f)
=317	=317	=317	=317
2.T	2.V7b	(4E	(8c
.	.	.	4g
.	.	4G	.
.	.	.	4b-
.	.	4c)	.
.	.	.	[8g)
=318	=318	=318	=318
4T	4i	(4F	(8g]
.	.	.	4a-
4T	4VI	4D-	.
.	.	.	4f)
4T	4iiom7b	4BB-)	.
.	.	.	8g 8b-
=319	=319	=319	=319
4T	4Cc	2C	(4f 4a-
2T	2V	.	4e) 4g
.	.	4r	8cc'L
.	.	.	8cc'J
=320	=320	=320	=320
4T	4ib	(4A- 4f	(8dd-
.	.	.	4cc
4T	4V7c	4G 4e	.
.	.	.	4b-
4T	4i	4F) 4f	.
.	.	.	[8a-)
=321	=321	=321	=321
2.T	2.iib	2.B- 2.d-	(8a-L]
.	.	.	8gJ
.	.	.	8b-L
.	.	.	8dd-J
.	.	.	8b-L
.	.	.	8gJ)
=322	=322	=322	=322
*	*	*^	*
4T	4Cc	(4A-	2.C	8r
.	.	.	.	(4f
2T	2V	4G	.	.
.	.	.	.	8e
.	.	4E)	.	8gL
.	.	.	.	8ccJ)
*	*	*v	*v	*
=323	=323	=323	=323
4T	4viioD7d	4D- 4DD-	(4e 4g 4b-
8T	8i	8r	8fL) 8a-
*	*	*clefG2	*
8T	8VI	8f 8d-	8ffJ 8a-
8P	8V7c/iv	8e-L 8cL	8ffL 8aL
8P	8iv	8d-J 8B-J	8ffJ 8b-J
=324	=324	=324	=324
*	*	*^	*^
2.P	2.viioD7/iv	(4c	2.A	(8ff	2.cc
.	.	.	.	4gg-	.
.	.	4e-	.	.	.
.	.	.	.	4ff	.
.	.	4g-)	.	.	.
.	.	.	.	[8ee-)	.
=325	=325	=325	=325	=325	=325
4P	4iv	2.f	(4B-	(8ee-]	4b-
.	.	.	.	4dd-	.
4P	4ic	.	4c	.	2a-
.	.	.	.	4cc	.
4P	4Gn	.	4d-)	.	.
.	.	.	.	8b)	.
*	*	*	*	*v	*v
=326	=326	=326	=326	=326
2D	2Cc	4f 4a-	4c	8r
.	.	.	.	(q32dd-
.	.	.	.	q32cc
.	.	.	.	q32b
.	.	.	.	(8cc)
.	.	4r	4r	8ffL
.	.	.	.	8a-J
*	*	*clefF4	*clefF4	*
4D	4V7	(8GL	4C	8ccL
.	.	8B-J)	.	8eJ)
=327	=327	=327	=327	=327
2T	2i	4A-	4F	4f
*	*	*v	*v	*
.	.	4FF	4r
*-	*-	*-	*-
